X:1
T: Nan's Waltz
N:
C:
S:
A:
O:
R:
M:3/4
K:G
I:speed 150
%W: A
% voice 1 (1 lines, 21 notes)
K:G
M:3/4
L:1/16
D4 |d6 c2 B4 |A6 G2 A4 |B6 A2 B4 |D8 D4 |E6 G2 A4 |B2 d6 B4 |A12 |A8 D4 |
%W:
% voice 1 (1 lines, 20 notes)
d6 c2 B4 |A6 G2 A4 |B6 A2 B4 |D8 D4 |E6 G2 e4 |d2 B6 A4 |G12|G8 d4 |
%W: B
% voice 1 (1 lines, 21 notes)
g6 a2 g2 f2 |g4 f4 e4 |f6 d2 B4 |B8 d4 |e6 f2 g4 |d6 c2 B4 |A12|A8 d4 |
%W:
% voice 1 (1 lines, 27 notes)
g6 f2 g2 a2 |b4 f4 d4 |e6 d2 e2 f2 |g4 d4 B4 |c6 B2 c2 d2 |e4 f4 g4 |A4 B4 G4 |F4 E4 D4 |
%W:
% voice 1 (1 lines, 19 notes)
d6 c2 B4 |A6 G2 A4 |B6 G2 A4 |D8 D4 |E6 G2 e4 |d2 B6 A4 |G12|G8 ||
